X:1
T:St. Michael New, 10.10.12.10
T:St. Michael New, 10.10.12.10
T:Samuel Sebastian Wesley. 1872
T:Public Domain Courtesy of the Cyber Hymnal™
C:Samuel Sebastian Wesley. 1872
Z:Public Domain
Z:Courtesy of the Cyber Hymnal™
%%score ( 1 2 ) ( 3 4 )
L:1/8
Q:1/4=115
M:4/4
K:Eb
V:1 treble 
V:2 treble 
V:3 bass 
V:4 bass 
V:1
 [B,G]2 | [B,B]3 [B,G] [B,E]2 [B,D]2 | E2 [EF]2 [EG]2 [DF]2 | E6 [B,F]2 | %4
 [B,G]2 [DA]2 [EB]2 [DB]2 | [Gc]2 [Fd]2 (ed) [Ec]2 | [DB]6 [DF]2 | [EB]2 [FA]2 [EG]2 [DF]2 | %8
 E6 E2 | [Ec]2 [GB]2 [FA]2 [=EG]2 | [FA]6 [B,D]2 | [B,E]2 [DF]2 [EG]2 [FB]2 | %12
 [Ee]2 [EA]2 [EG]2 [DF]2 | E6 |] %14
V:2
 x2 | x8 | E2 x6 | E6 x2 | x8 | x4 E2 x2 | x8 | x8 | E6 E2 | x8 | x8 | x8 | x8 | E6 |] %14
V:3
 [E,G,]2 | G,3 [E,G,] [B,,G,]2 [A,,F,]2 | [G,,B,]2 [A,,C]2 [B,,B,]2 (B,A,) | [E,G,]6 [D,B,]2 | %4
 [E,B,]2 [F,B,]2 [G,B,]2 [F,A,]2 | [E,G,]2 [D,B,]2 [C,B,]2 [F,=A,]2 | [B,,B,]6 [A,,B,]2 | %7
 [G,,B,]2 [A,,C]2 [B,,B,]2 [=B,,A,]2 | [C,G,]6 [B,,G,]2 | [A,,C]2 [B,,_D]2 [C,C]2 [C,C]2 | %10
 [F,C]6 B,2 | [G,B,]2 [F,B,]2 [E,B,]2 [D,B,]2 | [C,G,]2 [A,,C]2 [B,,B,]2 [B,,A,]2 | [E,G,]6 |] %14
V:4
 x2 | G,3 x5 | x6 B,,2 | x8 | x8 | x8 | x8 | x8 | x8 | x8 | x6 B,2 | x8 | x8 | x6 |] %14

